X:186
T:Jack on the Green
M:9/4
L:1/8
B:Thompson's Compleat Collection of 200 Favourite Country Dances, vol. 1 (London, 1757)
Z:Transcribed and edited by Flynn Titford-Mock, 2007
Z:abc's:AK/Fiddler's Companion
K:D
D4E2(DEF2)D2(EFG2)E2|F4A2A2E2G2"tr"F4D2|D4E2(DEF2)D2(EFG2)E2|"tr"c4d2d2A2G2" tr"F4D2:|
|:d4f2e2c2A2(Bcd2)B2|"tr"c4e2e2B2d2"tr"c4A2|d4f2e2c2A2(Bc)d2B2|"tr"c4d2d2A2G 2"tr"F4D2:|

